papirus/16x16/apps/copyq.svg

<?xml version="1.0" encoding="UTF-8" standalone="no"?>
<!-- Created with Inkscape (http://www.inkscape.org/) -->

<svg
   xmlns:dc="http://purl.org/dc/elements/1.1/"
   xmlns:cc="http://creativecommons.org/ns#"
   xmlns:rdf="http://www.w3.org/1999/02/22-rdf-syntax-ns#"
   xmlns:svg="http://www.w3.org/2000/svg"
   xmlns="http://www.w3.org/2000/svg"
   xmlns:sodipodi="http://sodipodi.sourceforge.net/DTD/sodipodi-0.dtd"
   xmlns:inkscape="http://www.inkscape.org/namespaces/inkscape"
   id="svg4231"
   height="16"
   width="16"
   version="1.1"
   viewBox="0 0 16 16"
   inkscape:version="0.91 r13725"
   sodipodi:docname="copyq.svg">
  <defs
     id="defs21" />
  <sodipodi:namedview
     pagecolor="#ffffff"
     bordercolor="#666666"
     borderopacity="1"
     objecttolerance="10"
     gridtolerance="10"
     guidetolerance="10"
     inkscape:pageopacity="0"
     inkscape:pageshadow="2"
     inkscape:window-width="1600"
     inkscape:window-height="847"
     id="namedview19"
     showgrid="true"
     inkscape:zoom="33.89"
     inkscape:cx="11.45236"
     inkscape:cy="8.5589733"
     inkscape:window-x="0"
     inkscape:window-y="0"
     inkscape:window-maximized="1"
     inkscape:current-layer="svg4231">
    <inkscape:grid
       type="xygrid"
       id="grid4195" />
  </sodipodi:namedview>
  <metadata
     id="metadata4236">
    <rdf:RDF>
      <cc:Work
         rdf:about="">
        <dc:format>image/svg+xml</dc:format>
        <dc:type
           rdf:resource="http://purl.org/dc/dcmitype/StillImage" />
        <dc:title></dc:title>
      </cc:Work>
    </rdf:RDF>
  </metadata>
  <path
     inkscape:connector-curvature="0"
     id="path4204"
     d="M 12,1 A 4,4 0 0 1 16,5 4,4 0 0 1 12,9 4,4 0 0 1 10.382813,8.6523438 C 10.273928,8.7499044 10,9 10,9 5,14 0,14.863281 0,14.863281 L 8.3535156,6.6367188 A 4,4 0 0 1 8,5 4,4 0 0 1 12,1 Z"
     style="fill:#9bcc6e;fill-opacity:1" />
  <g
     id="g4198">
    <path
       id="path4444"
       d="M 4 1 A 4 4 0 0 0 0 5 A 4 4 0 0 0 4 9 A 4 4 0 0 0 5.6171875 8.6523438 C 5.726072 8.7499044 6 9 6 9 C 11 14 16 14.863281 16 14.863281 L 7.6464844 6.6367188 A 4 4 0 0 0 8 5 A 4 4 0 0 0 4 1 z "
       style="fill:#69d1ad" />
    <circle
       r="2"
       cx="4"
       cy="5"
       id="path4152-1"
       style="fill:#f9f9f9" />
  </g>
  <circle
     style="fill:#f9f9f9"
     id="circle4156-4"
     cy="9"
     cx="8"
     r="1" />
  <circle
     r="2"
     cx="-12"
     cy="5"
     id="circle4206"
     style="fill:#f9f9f9"
     transform="scale(-1,1)" />
</svg>

<?xml version="1.0" encoding="UTF-8" standalone="no"?>
<svg id="svg4231" xmlns:rdf="http://www.w3.org/1999/02/22-rdf-syntax-ns#" xmlns="http://www.w3.org/2000/svg" height="16" width="16" version="1.1" xmlns:cc="http://creativecommons.org/ns#" viewBox="0 0 16 16" xmlns:dc="http://purl.org/dc/elements/1.1/">
 <metadata id="metadata4236">
  <rdf:RDF>
   <cc:Work rdf:about="">
    <dc:format>image/svg+xml</dc:format>
    <dc:type rdf:resource="http://purl.org/dc/dcmitype/StillImage"/>
    <dc:title/>
   </cc:Work>
  </rdf:RDF>
 </metadata>
 <path id="path4204" fill="#9bcc6e" d="m12 1a4 4 0 0 1 4 4 4 4 0 0 1 -4 4 4 4 0 0 1 -1.617 -0.3477c-0.109 0.0976-0.383 0.3477-0.383 0.3477-5 5-10 5.863-10 5.863l8.3535-8.2263a4 4 0 0 1 -0.3535 -1.6367 4 4 0 0 1 4 -4z"/>
 <g id="g4198">
  <path id="path4444" fill="#69d1ad" d="m4 1a4 4 0 0 0 -4 4 4 4 0 0 0 4 4 4 4 0 0 0 1.6172 -0.3477c0.1089 0.0976 0.3828 0.3477 0.3828 0.3477 5 5 10 5.863 10 5.863l-8.3535-8.2263a4 4 0 0 0 0.3535 -1.6367 4 4 0 0 0 -4 -4z"/>
  <circle id="path4152-1" cx="4" cy="5" r="2" fill="#f9f9f9"/>
 </g>
 <circle id="circle4156-4" cy="9" cx="8" r="1" fill="#f9f9f9"/>
 <circle id="circle4206" cx="-12" transform="scale(-1,1)" cy="5" r="2" fill="#f9f9f9"/>
</svg>
